static/assets/images/tokens/dai.svg

<svg width="256" height="256" viewBox="0 0 256 256" fill="none" xmlns="http://www.w3.org/2000/svg">
<path d="M128 0C198.699 0 256 57.3126 256 128C256 198.699 198.699 256 128 256C57.3126 256 0 198.693 0 128C0 57.3126 57.3126 0 128 0Z" fill="#F7BB38"/>
<path d="M181.355 137.038C182.392 137.038 182.882 137.038 182.957 135.678C183.354 130.73 183.354 125.754 182.957 120.8C182.957 119.838 182.479 119.441 181.436 119.441H84.6383C83.4402 119.441 83.1176 119.838 83.1176 120.961V135.2C83.1176 137.038 83.1176 137.038 85.0357 137.038H181.355ZM177.525 102.8C177.663 102.437 177.663 102.039 177.525 101.682C176.713 99.914 175.751 98.2263 174.633 96.6423C172.951 93.935 170.97 91.4409 168.712 89.2003C167.646 87.8466 166.414 86.6313 165.031 85.6002C158.108 79.7077 149.877 75.5374 141.029 73.4407C136.565 72.4385 132.003 71.9604 127.43 72.0007H84.4712C83.2732 72.0007 83.1119 72.4788 83.1119 73.5214V101.918C83.1119 103.117 83.1119 103.439 84.6325 103.439H176.949C176.949 103.439 177.75 103.278 177.911 102.8H177.519H177.525ZM177.525 153.678C176.166 153.529 174.795 153.529 173.435 153.678H84.7189C83.5208 153.678 83.1176 153.678 83.1176 155.28V183.043C83.1176 184.322 83.1176 184.644 84.7189 184.644H125.679C127.637 184.794 129.596 184.656 131.514 184.247C137.458 183.821 143.304 182.53 148.88 180.405C150.908 179.702 152.866 178.786 154.715 177.686H155.274C164.876 172.692 172.675 164.847 177.594 155.216C177.594 155.216 178.153 154.007 177.525 153.69V153.678ZM67.0413 199.039V154.802C67.0413 153.759 67.0413 153.603 65.7626 153.603H48.4018C47.4398 153.603 47.0424 153.603 47.0424 152.325V137.124H65.6013C66.6381 137.124 67.0413 137.124 67.0413 135.765V120.725C67.0413 119.763 67.0413 119.527 65.7626 119.527H48.4018C47.4398 119.527 47.0424 119.527 47.0424 118.248V104.171C47.0424 103.289 47.0424 103.053 48.3211 103.053H65.5207C66.7187 103.053 67.0413 103.053 67.0413 101.533V58.4127C67.0413 57.134 67.0413 56.8114 68.6426 56.8114H128.639C132.994 56.9842 137.32 57.4623 141.599 58.2515C150.418 59.8816 158.891 63.0323 166.638 67.5309C171.776 70.5549 176.505 74.2068 180.716 78.4117C183.884 81.7007 186.741 85.2604 189.275 89.0505C191.793 92.8924 193.884 96.9994 195.525 101.291C195.727 102.408 196.798 103.163 197.916 102.973H212.235C214.073 102.973 214.073 102.973 214.153 104.735V117.857C214.153 119.135 213.675 119.458 212.391 119.458H201.349C200.231 119.458 199.909 119.458 199.989 120.898C200.427 125.771 200.427 130.661 199.989 135.534C199.989 136.894 199.989 137.055 201.516 137.055H214.147C214.706 137.775 214.147 138.495 214.147 139.221C214.228 140.148 214.228 141.087 214.147 142.014V151.697C214.147 153.056 213.75 153.459 212.546 153.459H197.426C196.372 153.258 195.347 153.932 195.105 154.98C191.505 164.34 185.745 172.733 178.303 179.46C175.584 181.908 172.727 184.212 169.743 186.338C166.541 188.181 163.424 190.099 160.141 191.62C154.099 194.339 147.763 196.343 141.26 197.616C135.085 198.722 128.824 199.223 122.539 199.137H67.0183V199.056L67.0413 199.039Z" fill="#FEFEFD"/>
</svg>

<svg xmlns="http://www.w3.org/2000/svg" fill="none" viewBox="0 0 256 256"><path fill="#F7BB38" d="M128 0c70.699 0 128 57.313 128 128 0 70.699-57.301 128-128 128C57.313 256 0 198.693 0 128 0 57.313 57.313 0 128 0"/><path fill="#FEFEFD" d="M181.355 137.038c1.037 0 1.527 0 1.602-1.36a93 93 0 0 0 0-14.878c0-.962-.478-1.359-1.521-1.359H84.638c-1.198 0-1.52.397-1.52 1.52V135.2c0 1.838 0 1.838 1.918 1.838zm-3.83-34.238a1.56 1.56 0 0 0 0-1.118 31.6 31.6 0 0 0-2.892-5.04 40.8 40.8 0 0 0-5.921-7.442 19.6 19.6 0 0 0-3.681-3.6 57.5 57.5 0 0 0-24.002-12.16A59.7 59.7 0 0 0 127.43 72H84.471c-1.198 0-1.36.479-1.36 1.521v28.397c0 1.199 0 1.521 1.521 1.521h92.317s.801-.161.962-.639h-.392zm0 50.878a18.8 18.8 0 0 0-4.09 0H84.719c-1.198 0-1.601 0-1.601 1.602v27.763c0 1.279 0 1.601 1.6 1.601h40.961a20.5 20.5 0 0 0 5.835-.397 61 61 0 0 0 17.366-3.842 31.8 31.8 0 0 0 5.835-2.719h.559a51.97 51.97 0 0 0 22.32-22.47s.559-1.209-.069-1.526zM67.041 199.039v-44.237c0-1.043 0-1.199-1.278-1.199H48.402c-.962 0-1.36 0-1.36-1.278v-15.201h18.56c1.036 0 1.44 0 1.44-1.359v-15.04c0-.962 0-1.198-1.28-1.198h-17.36c-.962 0-1.36 0-1.36-1.279v-14.077c0-.882 0-1.118 1.28-1.118H65.52c1.198 0 1.52 0 1.52-1.52v-43.12c0-1.279 0-1.602 1.602-1.602h59.996c4.355.173 8.681.651 12.96 1.44a78.2 78.2 0 0 1 25.039 9.28 70.6 70.6 0 0 1 14.078 10.88 77 77 0 0 1 8.559 10.64 64 64 0 0 1 6.25 12.24 2.084 2.084 0 0 0 2.391 1.682h14.319c1.838 0 1.838 0 1.918 1.762v13.122c0 1.278-.478 1.601-1.762 1.601h-11.042c-1.118 0-1.44 0-1.36 1.44a81.7 81.7 0 0 1 0 14.636c0 1.36 0 1.521 1.527 1.521h12.631c.559.72 0 1.44 0 2.166.081.927.081 1.866 0 2.793v9.683c0 1.359-.397 1.762-1.601 1.762h-15.12a2 2 0 0 0-2.321 1.521 64 64 0 0 1-16.802 24.48 97 97 0 0 1-8.56 6.878c-3.202 1.843-6.319 3.761-9.602 5.282a86.5 86.5 0 0 1-18.881 5.996 98.5 98.5 0 0 1-18.721 1.521h-55.52v-.081z"/></svg>
